X: 31
T: THREE LITTLE WORDS
C: H.Ruby (1930)
M: C|
L: 1/4
K: D
|: "D"dA BF- | F4- | FA BA | "Fm6"=c c2 B | "A7"AF GE- | E4- | E2 A2 | "Bm6#"B2 "A7"c2 :|
   "D7"dB =cA- | AB cd | "Am7"e4 | "D7"F4 | "G"BF GE- | EF "Em"GA  |"Edim"^A2 "B7"B2 | "Bb7"d2 "A7"c2 |
   "D"dABF- F4- | FA BA | "Fm6"=c c2 B | "A7"AF G"Em"e- | "Gm6"e2 "A7"f2 | "D"d4- | d z3 |]
